src/Static/Positions/ks-position-35.svg

<?xml version="1.0" encoding="UTF-8"?>
<svg width="183px" height="251px" viewBox="0 0 183 251" version="1.1" xmlns="http://www.w3.org/2000/svg" xmlns:xlink="http://www.w3.org/1999/xlink">
    <title>sex-etsy-35</title>
    <defs>
        <path d="M73.6498,162.218 C74.5736,162.9297 75.3795,163.6288 76.1023,164.3171 L76.2784,163.2868 C77.044,158.8058 80.8946,155.5529 85.4347,155.5529 C85.9601,155.5529 86.4913,155.5983 87.0128,155.6877 C89.4601,156.1066 91.5997,157.4538 93.0343,159.4812 C94.4698,161.509 95.0304,163.9744 94.6105,166.4231 L89.6864,195.2154 C94.0897,196.3687 98.8932,194.5153 101.0216,185.7545 C112.4802,188.932 121.3585,193.0249 128.1743,196.9406 L96.7897,224.8672 C93.5329,227.7647 92.4059,232.3721 93.9557,236.4453 C95.5055,240.519 99.4108,243.2114 103.7692,243.2114 L162.2692,243.2114 C168.068,243.2114 172.7692,238.5102 172.7692,232.7114 C172.7692,226.9126 168.068,222.2114 162.2692,222.2114 L131.3649,222.2114 L150.0827,205.5556 C150.6745,205.029 151.1857,204.447 151.6296,203.8296 C159.8012,194.4468 167.3888,172.8862 145.4254,170.3204 C107.8733,165.9334 109.2634,151.2348 95.9639,147.735 C82.4354,144.1729 74.1786,152.2509 73.6498,162.218 Z" id="path-1"></path>
        <filter x="-8.6%" y="-6.7%" width="117.2%" height="117.6%" filterUnits="objectBoundingBox" id="filter-2">
            <feMorphology radius="1.5" operator="dilate" in="SourceAlpha" result="shadowSpreadOuter1"></feMorphology>
            <feOffset dx="0" dy="2" in="shadowSpreadOuter1" result="shadowOffsetOuter1"></feOffset>
            <feGaussianBlur stdDeviation="2" in="shadowOffsetOuter1" result="shadowBlurOuter1"></feGaussianBlur>
            <feComposite in="shadowBlurOuter1" in2="SourceAlpha" operator="out" result="shadowBlurOuter1"></feComposite>
            <feColorMatrix values="0 0 0 0 0   0 0 0 0 0   0 0 0 0 0  0 0 0 0.5 0" type="matrix" in="shadowBlurOuter1"></feColorMatrix>
        </filter>
        <path d="M92.3439,166.0349 C92.9962,162.2239 90.4347,158.6067 86.6242,157.9548 C82.8137,157.302 79.1965,159.863 78.5451,163.6745 L66.3703,234.8644 C65.718,238.6754 68.2795,242.2926 72.09,242.9445 C72.4894,243.0129 72.8859,243.0456 73.2785,243.0456 C76.6262,243.0456 79.5861,240.6359 80.1691,237.2248 L92.3439,166.0349 Z" id="path-3"></path>
        <filter x="-32.5%" y="-7.6%" width="164.9%" height="120.0%" filterUnits="objectBoundingBox" id="filter-4">
            <feMorphology radius="1.5" operator="dilate" in="SourceAlpha" result="shadowSpreadOuter1"></feMorphology>
            <feOffset dx="0" dy="2" in="shadowSpreadOuter1" result="shadowOffsetOuter1"></feOffset>
            <feGaussianBlur stdDeviation="2" in="shadowOffsetOuter1" result="shadowBlurOuter1"></feGaussianBlur>
            <feComposite in="shadowBlurOuter1" in2="SourceAlpha" operator="out" result="shadowBlurOuter1"></feComposite>
            <feColorMatrix values="0 0 0 0 0   0 0 0 0 0   0 0 0 0 0  0 0 0 0.5 0" type="matrix" in="shadowBlurOuter1"></feColorMatrix>
        </filter>
        <path d="M101.4949,122.0173 C108.1962,126.2787 105.9101,145.5866 115.4251,152.5064 C127.7709,161.4851 137.1454,151.0186 132.7148,152.0209 C128.2843,153.0232 122.2465,151.4029 119.6645,134.8314 C117.0373,117.9693 107.7799,114.5896 100.0679,114.314 C100.4696,115.4193 100.7953,116.5675 101.0346,117.7548 C101.3227,119.1839 101.4682,120.6086 101.4949,122.0173 Z" id="path-5"></path>
        <filter x="-27.4%" y="-15.6%" width="152.0%" height="140.7%" filterUnits="objectBoundingBox" id="filter-6">
            <feMorphology radius="1.5" operator="dilate" in="SourceAlpha" result="shadowSpreadOuter1"></feMorphology>
            <feOffset dx="0" dy="2" in="shadowSpreadOuter1" result="shadowOffsetOuter1"></feOffset>
            <feGaussianBlur stdDeviation="2" in="shadowOffsetOuter1" result="shadowBlurOuter1"></feGaussianBlur>
            <feComposite in="shadowBlurOuter1" in2="SourceAlpha" operator="out" result="shadowBlurOuter1"></feComposite>
            <feColorMatrix values="0 0 0 0 0   0 0 0 0 0   0 0 0 0 0  0 0 0 0.5 0" type="matrix" in="shadowBlurOuter1"></feColorMatrix>
        </filter>
        <path d="M94.9953,114.4178 C95.8752,117.0242 95.6877,119.8177 94.466,122.283 C92.716,125.8177 89.1769,128.0135 85.2306,128.0135 C83.6368,128.0135 82.1007,127.6531 80.6652,126.9417 L57.3918,115.4158 C56.1709,118.9268 55.8405,122.799 56.6283,126.7069 C58.9749,138.3468 70.3131,145.8807 81.9531,143.5342 C93.593,141.1876 101.1268,129.8494 98.7802,118.2094 C96.5362,107.0779 86.0683,99.7082 74.9777,101.1374 L89.8078,108.4817 C92.2736,109.7029 94.1154,111.8108 94.9953,114.4178 Z" id="path-7"></path>
        <filter x="-19.8%" y="-15.1%" width="139.5%" height="139.5%" filterUnits="objectBoundingBox" id="filter-8">
            <feMorphology radius="1.5" operator="dilate" in="SourceAlpha" result="shadowSpreadOuter1"></feMorphology>
            <feOffset dx="0" dy="2" in="shadowSpreadOuter1" result="shadowOffsetOuter1"></feOffset>
            <feGaussianBlur stdDeviation="2" in="shadowOffsetOuter1" result="shadowBlurOuter1"></feGaussianBlur>
            <feComposite in="shadowBlurOuter1" in2="SourceAlpha" operator="out" result="shadowBlurOuter1"></feComposite>
            <feColorMatrix values="0 0 0 0 0   0 0 0 0 0   0 0 0 0 0  0 0 0 0.5 0" type="matrix" in="shadowBlurOuter1"></feColorMatrix>
        </filter>
        <path d="M1.9291,129.4981 C2.3858,131.3964 3.2873,133.2168 4.6608,134.7891 L37.5192,172.4038 L27.2301,228.0942 C25.9762,234.8828 30.4625,241.4028 37.2516,242.6572 C38.0192,242.7988 38.7829,242.8676 39.5368,242.8676 C45.447,242.8676 50.7018,238.6572 51.8141,232.6362 L63.2008,171.0029 C63.8942,167.249 62.8346,163.3838 60.3229,160.5083 L35.7572,132.3863 C35.8867,131.0125 35.9476,129.452 35.9401,127.6762 C35.2594,119.0288 36.4074,109.7596 38.1629,100.9237 L21.5441,76.4075 C18.3576,71.7063 19.589,65.2888 24.2892,62.1023 C26.0021,60.9412 27.9982,60.3274 30.0617,60.3274 C33.4855,60.3274 36.675,62.0173 38.5949,64.8484 L44.7955,73.9956 C46.7989,64.828 43.561,54.6597 35.9371,52.3083 C27.5291,49.7175 14.9192,53.6686 9.0907,68.0139 C1.1928,87.7844 -0.9862,100.8175 0.381,123.1406 C0.715,125.5585 1.245,127.66 1.9291,129.4981 Z" id="path-9"></path>
        <filter x="-13.4%" y="-3.4%" width="126.8%" height="108.9%" filterUnits="objectBoundingBox" id="filter-10">
            <feMorphology radius="1.5" operator="dilate" in="SourceAlpha" result="shadowSpreadOuter1"></feMorphology>
            <feOffset dx="0" dy="2" in="shadowSpreadOuter1" result="shadowOffsetOuter1"></feOffset>
            <feGaussianBlur stdDeviation="2" in="shadowOffsetOuter1" result="shadowBlurOuter1"></feGaussianBlur>
            <feComposite in="shadowBlurOuter1" in2="SourceAlpha" operator="out" result="shadowBlurOuter1"></feComposite>
            <feColorMatrix values="0 0 0 0 0   0 0 0 0 0   0 0 0 0 0  0 0 0 1 0" type="matrix" in="shadowBlurOuter1"></feColorMatrix>
        </filter>
        <ellipse id="path-11" cx="44.981279" cy="26.5024066" rx="22.5002117" ry="22.5001117"></ellipse>
        <filter x="-18.9%" y="-14.4%" width="137.8%" height="137.8%" filterUnits="objectBoundingBox" id="filter-12">
            <feMorphology radius="1.5" operator="dilate" in="SourceAlpha" result="shadowSpreadOuter1"></feMorphology>
            <feOffset dx="0" dy="2" in="shadowSpreadOuter1" result="shadowOffsetOuter1"></feOffset>
            <feGaussianBlur stdDeviation="2" in="shadowOffsetOuter1" result="shadowBlurOuter1"></feGaussianBlur>
            <feComposite in="shadowBlurOuter1" in2="SourceAlpha" operator="out" result="shadowBlurOuter1"></feComposite>
            <feColorMatrix values="0 0 0 0 0   0 0 0 0 0   0 0 0 0 0  0 0 0 1 0" type="matrix" in="shadowBlurOuter1"></feColorMatrix>
        </filter>
        <path d="M36.6915,66.1394 C34.211,62.4817 29.2364,61.5271 25.5802,64.0061 C21.923,66.4856 20.9689,71.4597 23.4474,75.1169 L43.6144,104.8669 C44.3898,106.0105 45.4484,106.9338 46.6857,107.5471 L81.6857,124.8806 C82.8273,125.446 84.0382,125.7136 85.2306,125.7136 C88.1759,125.7136 91.0099,124.0803 92.4054,121.2619 C94.3663,117.3029 92.7462,112.5036 88.7872,110.5427 L55.6759,94.1448 L36.6915,66.1394 Z" id="path-13"></path>
        <filter x="-11.9%" y="-10.3%" width="123.9%" height="126.9%" filterUnits="objectBoundingBox" id="filter-14">
            <feMorphology radius="1.5" operator="dilate" in="SourceAlpha" result="shadowSpreadOuter1"></feMorphology>
            <feOffset dx="0" dy="2" in="shadowSpreadOuter1" result="shadowOffsetOuter1"></feOffset>
            <feGaussianBlur stdDeviation="2" in="shadowOffsetOuter1" result="shadowBlurOuter1"></feGaussianBlur>
            <feComposite in="shadowBlurOuter1" in2="SourceAlpha" operator="out" result="shadowBlurOuter1"></feComposite>
            <feColorMatrix values="0 0 0 0 0   0 0 0 0 0   0 0 0 0 0  0 0 0 1 0" type="matrix" in="shadowBlurOuter1"></feColorMatrix>
        </filter>
    </defs>
    <g id="Page-2" stroke="none" stroke-width="1" fill="none" fill-rule="evenodd">
        <g id="sex-etsy-35" transform="translate(5.000000, 0.000000)" fill-rule="nonzero">
            <g id="Path">
                <use fill="black" fill-opacity="1" filter="url(#filter-2)" xlink:href="#path-1"></use>
                <use stroke="#1A1A1D" stroke-width="3" fill="#6F2232" xlink:href="#path-1"></use>
            </g>
            <g id="Path">
                <use fill="black" fill-opacity="1" filter="url(#filter-4)" xlink:href="#path-3"></use>
                <use stroke="#1A1A1D" stroke-width="3" fill="#6F2232" xlink:href="#path-3"></use>
            </g>
            <g id="Path">
                <use fill="black" fill-opacity="1" filter="url(#filter-6)" xlink:href="#path-5"></use>
                <use stroke="#1A1A1D" stroke-width="3" fill="#6F2232" xlink:href="#path-5"></use>
            </g>
            <g id="Path">
                <use fill="black" fill-opacity="1" filter="url(#filter-8)" xlink:href="#path-7"></use>
                <use stroke="#1A1A1D" stroke-width="3" fill="#6F2232" xlink:href="#path-7"></use>
            </g>
            <g id="Path">
                <use fill="black" fill-opacity="1" filter="url(#filter-10)" xlink:href="#path-9"></use>
                <use stroke="#1A1A1D" stroke-width="3" fill="#4E4E50" xlink:href="#path-9"></use>
            </g>
            <g id="Oval" transform="translate(44.981279, 26.502407) rotate(-10.643589) translate(-44.981279, -26.502407) ">
                <use fill="black" fill-opacity="1" filter="url(#filter-12)" xlink:href="#path-11"></use>
                <use stroke="#1A1A1D" stroke-width="3" fill="#4E4E50" xlink:href="#path-11"></use>
            </g>
            <g id="Path">
                <use fill="black" fill-opacity="1" filter="url(#filter-14)" xlink:href="#path-13"></use>
                <use stroke="#1A1A1D" stroke-width="3" fill="#4E4E50" xlink:href="#path-13"></use>
            </g>
        </g>
    </g>
</svg>

<svg xmlns="http://www.w3.org/2000/svg" width="183" height="251" xmlns:xlink="http://www.w3.org/1999/xlink"><title>sex-etsy-35</title><defs><path id="b" d="M73.65 162.22c.92.7 1.73 1.4 2.45 2.1l.18-1.03c.76-4.5 4.6-7.75 9.15-7.75.53 0 1.06.05 1.58.14 2.46.4 4.6 1.75 6.03 3.78 1.44 2.03 2 4.5 1.58 6.94l-4.9 28.8c4.4 1.15 9.2-.7 11.32-9.47 11.46 3.18 20.34 7.27 27.15 11.2L96.8 224.86c-3.27 2.9-4.4 7.5-2.84 11.58 1.55 4.07 5.45 6.76 9.8 6.76h58.5c5.8 0 10.5-4.7 10.5-10.5s-4.7-10.5-10.5-10.5h-30.9l18.72-16.64c.6-.53 1.1-1.1 1.55-1.73 8.17-9.38 15.76-30.94-6.2-33.5-37.56-4.4-36.17-19.1-49.47-22.6-13.52-3.56-21.78 4.52-22.3 14.5z"/><filter id="a" width="117.2%" height="117.6%" x="-8.6%" y="-6.7%" filterUnits="objectBoundingBox"><feMorphology radius="1.5" operator="dilate" in="SourceAlpha" result="shadowSpreadOuter1"/><feOffset dy="2" in="shadowSpreadOuter1" result="shadowOffsetOuter1"/><feGaussianBlur stdDeviation="2" in="shadowOffsetOuter1" result="shadowBlurOuter1"/><feComposite in="shadowBlurOuter1" in2="SourceAlpha" operator="out" result="shadowBlurOuter1"/><feColorMatrix values="0 0 0 0 0 0 0 0 0 0 0 0 0 0 0 0 0 0 0.5 0" in="shadowBlurOuter1"/></filter><path id="d" d="M92.34 166.03c.66-3.8-1.9-7.42-5.72-8.08-3.8-.65-7.42 1.9-8.07 5.72l-12.18 71.2c-.65 3.8 1.9 7.42 5.72 8.07.4.07.8.1 1.18.1 3.35 0 6.3-2.4 6.9-5.82l12.16-71.2z"/><filter id="c" width="164.9%" x="-32.5%" y="-7.6%" filterUnits="objectBoundingBox"><feMorphology radius="1.5" operator="dilate" in="SourceAlpha" result="shadowSpreadOuter1"/><feOffset dy="2" in="shadowSpreadOuter1" result="shadowOffsetOuter1"/><feGaussianBlur stdDeviation="2" in="shadowOffsetOuter1" result="shadowBlurOuter1"/><feComposite in="shadowBlurOuter1" in2="SourceAlpha" operator="out" result="shadowBlurOuter1"/><feColorMatrix values="0 0 0 0 0 0 0 0 0 0 0 0 0 0 0 0 0 0 0.5 0" in="shadowBlurOuter1"/></filter><path id="f" d="M101.5 122.02c6.7 4.26 4.4 23.57 13.93 30.5 12.34 8.97 21.72-1.5 17.28-.5-4.42 1-10.45-.62-13.04-17.2-2.62-16.85-11.88-20.23-19.6-20.5.4 1.1.74 2.25.97 3.43.3 1.43.44 2.86.46 4.27z"/><filter id="e" width="152%" height="140.7%" x="-27.4%" y="-15.6%" filterUnits="objectBoundingBox"><feMorphology radius="1.5" operator="dilate" in="SourceAlpha" result="shadowSpreadOuter1"/><feOffset dy="2" in="shadowSpreadOuter1" result="shadowOffsetOuter1"/><feGaussianBlur stdDeviation="2" in="shadowOffsetOuter1" result="shadowBlurOuter1"/><feComposite in="shadowBlurOuter1" in2="SourceAlpha" operator="out" result="shadowBlurOuter1"/><feColorMatrix values="0 0 0 0 0 0 0 0 0 0 0 0 0 0 0 0 0 0 0.5 0" in="shadowBlurOuter1"/></filter><path id="h" d="M95 114.42c.88 2.6.7 5.4-.53 7.86-1.75 3.54-5.3 5.73-9.24 5.73-1.6 0-3.13-.35-4.56-1.06L57.4 115.42c-1.23 3.5-1.56 7.38-.77 11.3 2.34 11.63 13.68 19.16 25.32 16.8 11.64-2.33 19.18-13.67 16.83-25.3-2.24-11.14-12.7-18.5-23.8-17.08l14.83 7.34c2.47 1.22 4.32 3.33 5.2 5.94z"/><filter id="g" width="139.5%" height="139.5%" x="-19.8%" y="-15.1%" filterUnits="objectBoundingBox"><feMorphology radius="1.5" operator="dilate" in="SourceAlpha" result="shadowSpreadOuter1"/><feOffset dy="2" in="shadowSpreadOuter1" result="shadowOffsetOuter1"/><feGaussianBlur stdDeviation="2" in="shadowOffsetOuter1" result="shadowBlurOuter1"/><feComposite in="shadowBlurOuter1" in2="SourceAlpha" operator="out" result="shadowBlurOuter1"/><feColorMatrix values="0 0 0 0 0 0 0 0 0 0 0 0 0 0 0 0 0 0 0.5 0" in="shadowBlurOuter1"/></filter><path id="j" d="M1.93 129.5c.46 1.9 1.36 3.72 2.73 5.3l32.86 37.6-10.3 55.7c-1.24 6.78 3.24 13.3 10.03 14.56.77.14 1.53.2 2.3.2 5.9 0 11.15-4.2 12.26-10.22L63.2 171c.7-3.75-.37-7.62-2.88-10.5l-24.56-28.1c.13-1.4.2-2.95.18-4.72-.68-8.65.47-17.92 2.22-26.76l-16.62-24.5c-3.18-4.7-1.95-11.13 2.75-14.32 1.7-1.16 3.7-1.77 5.76-1.77 3.43 0 6.6 1.7 8.53 4.52L44.8 74c2-9.17-1.24-19.34-8.86-21.7-8.4-2.58-21.02 1.37-26.85 15.7C1.2 87.8-1 100.83.37 123.15c.33 2.42.87 4.52 1.55 6.36z"/><filter id="i" width="126.8%" height="108.9%" x="-13.4%" y="-3.4%" filterUnits="objectBoundingBox"><feMorphology radius="1.5" operator="dilate" in="SourceAlpha" result="shadowSpreadOuter1"/><feOffset dy="2" in="shadowSpreadOuter1" result="shadowOffsetOuter1"/><feGaussianBlur stdDeviation="2" in="shadowOffsetOuter1" result="shadowBlurOuter1"/><feComposite in="shadowBlurOuter1" in2="SourceAlpha" operator="out" result="shadowBlurOuter1"/><feColorMatrix values="0 0 0 0 0 0 0 0 0 0 0 0 0 0 0 0 0 0 1 0" in="shadowBlurOuter1"/></filter><ellipse id="l" cx="44.981" cy="26.502" rx="22.5" ry="22.5"/><filter id="k" width="137.8%" height="137.8%" x="-18.9%" y="-14.4%" filterUnits="objectBoundingBox"><feMorphology radius="1.5" operator="dilate" in="SourceAlpha" result="shadowSpreadOuter1"/><feOffset dy="2" in="shadowSpreadOuter1" result="shadowOffsetOuter1"/><feGaussianBlur stdDeviation="2" in="shadowOffsetOuter1" result="shadowBlurOuter1"/><feComposite in="shadowBlurOuter1" in2="SourceAlpha" operator="out" result="shadowBlurOuter1"/><feColorMatrix values="0 0 0 0 0 0 0 0 0 0 0 0 0 0 0 0 0 0 1 0" in="shadowBlurOuter1"/></filter><path id="n" d="M36.7 66.14c-2.5-3.66-7.46-4.6-11.12-2.13-3.66 2.5-4.6 7.46-2.13 11.12l20.16 29.75c.8 1.14 1.85 2.06 3.1 2.68l35 17.33c1.13.57 2.34.83 3.53.83 2.95 0 5.78-1.62 7.18-4.44 1.97-3.96.35-8.76-3.6-10.72l-33.12-16.4-19-28z"/><filter id="m" width="123.9%" height="126.9%" x="-11.9%" y="-10.3%" filterUnits="objectBoundingBox"><feMorphology radius="1.5" operator="dilate" in="SourceAlpha" result="shadowSpreadOuter1"/><feOffset dy="2" in="shadowSpreadOuter1" result="shadowOffsetOuter1"/><feGaussianBlur stdDeviation="2" in="shadowOffsetOuter1" result="shadowBlurOuter1"/><feComposite in="shadowBlurOuter1" in2="SourceAlpha" operator="out" result="shadowBlurOuter1"/><feColorMatrix values="0 0 0 0 0 0 0 0 0 0 0 0 0 0 0 0 0 0 1 0" in="shadowBlurOuter1"/></filter></defs><g fill="none"><g fill-rule="nonzero"><g id="Path" transform="translate(5)"><use fill="#000" filter="url(#a)" xlink:href="#b"/><use fill="#6F2232" stroke="#1A1A1D" stroke-width="3" xlink:href="#b"/></g><g id="Path" transform="translate(5)"><use fill="#000" filter="url(#c)" xlink:href="#d"/><use fill="#6F2232" stroke="#1A1A1D" stroke-width="3" xlink:href="#d"/></g><g id="Path" transform="translate(5)"><use fill="#000" filter="url(#e)" xlink:href="#f"/><use fill="#6F2232" stroke="#1A1A1D" stroke-width="3" xlink:href="#f"/></g><g id="Path" transform="translate(5)"><use fill="#000" filter="url(#g)" xlink:href="#h"/><use fill="#6F2232" stroke="#1A1A1D" stroke-width="3" xlink:href="#h"/></g><g id="Path" transform="translate(5)"><use fill="#000" filter="url(#i)" xlink:href="#j"/><use fill="#4E4E50" stroke="#1A1A1D" stroke-width="3" xlink:href="#j"/></g><g transform="translate(5) rotate(-10.644 44.981 26.502)"><use fill="#000" filter="url(#k)" xlink:href="#l"/><use fill="#4E4E50" stroke="#1A1A1D" stroke-width="3" xlink:href="#l"/></g><g transform="translate(5)"><use fill="#000" filter="url(#m)" xlink:href="#n"/><use fill="#4E4E50" stroke="#1A1A1D" stroke-width="3" xlink:href="#n"/></g></g></g></svg>
